flaticon/constructions/relief-valve-1.svg

<svg xmlns="http://www.w3.org/2000/svg" width="32" height="32" viewBox="0 0 24 24">
    <path d="M 15.761719 16 L 9.878906 16 C 9.078125 16 8.441406 16.679688 8.441406 17.480469 L 8.441406 18.558594 C 8.441406 19.359375 9.078125 20 9.878906 20 L 15.761719 20 C 16.558594 20 17.199219 19.359375 17.238281 18.558594 L 17.238281 17.480469 C 17.238281 16.640625 16.558594 16 15.761719 16 Z M 15.761719 19.199219 L 9.878906 19.199219 C 9.519531 19.199219 9.238281 18.921875 9.238281 18.558594 L 9.238281 18.398438 L 10.441406 18.398438 C 10.640625 18.398438 10.800781 18.238281 10.800781 18 C 10.800781 17.761719 10.679688 17.601562 10.441406 17.601562 L 9.238281 17.601562 L 9.238281 17.480469 C 9.238281 17.078125 9.519531 16.800781 9.878906 16.800781 L 15.761719 16.800781 C 16.160156 16.800781 16.441406 17.121094 16.441406 17.480469 L 16.441406 17.601562 L 15.199219 17.601562 C 14.960938 17.601562 14.800781 17.761719 14.800781 18 C 14.800781 18.238281 14.960938 18.398438 15.199219 18.398438 L 16.441406 18.398438 L 16.441406 18.558594 C 16.441406 18.921875 16.121094 19.199219 15.761719 19.199219 Z M 15.761719 19.199219"/>
    <path d="M 23.601562 19.199219 L 18.800781 19.199219 L 18.800781 16.800781 L 23.601562 16.800781 C 23.839844 16.800781 24 16.640625 24 16.398438 C 24 16.160156 23.839844 16 23.601562 16 L 18.800781 16 L 18.800781 15.878906 C 18.800781 15.078125 18.160156 14.441406 17.359375 14.441406 L 14.761719 14.441406 L 14.761719 12.421875 C 16.664062 11.648438 18 9.785156 18 7.601562 C 18 4.71875 15.679688 2.398438 12.800781 2.398438 C 9.921875 2.398438 7.601562 4.71875 7.601562 7.601562 C 7.601562 9.769531 8.917969 11.621094 10.800781 12.402344 L 10.800781 14.441406 L 8.28125 14.441406 C 7.441406 14.441406 6.800781 15.078125 6.800781 15.878906 L 6.800781 16.054688 C 5.226562 15.855469 4 14.503906 4 12.878906 L 4 2.800781 C 4 2.558594 3.839844 2.398438 3.601562 2.398438 C 3.359375 2.398438 3.199219 2.558594 3.199219 2.800781 L 3.199219 12.878906 C 3.199219 14.960938 4.800781 16.679688 6.800781 16.878906 L 6.800781 19.199219 C 3.480469 19 0.800781 16.238281 0.800781 12.878906 L 0.800781 2.800781 C 0.800781 2.558594 0.640625 2.398438 0.398438 2.398438 C 0.160156 2.398438 0 2.558594 0 2.800781 L 0 12.878906 C 0 16.667969 3.023438 19.78125 6.800781 19.988281 L 6.800781 20.121094 C 6.800781 20.960938 7.480469 21.601562 8.28125 21.601562 L 17.359375 21.601562 C 18.160156 21.601562 18.800781 20.960938 18.800781 20.160156 L 18.800781 20 L 23.601562 20 C 23.839844 20 24 19.839844 24 19.601562 C 24 19.359375 23.839844 19.199219 23.601562 19.199219 Z M 14 14.398438 L 11.601562 14.398438 L 11.601562 12.660156 C 11.625 12.667969 11.652344 12.671875 11.679688 12.679688 C 11.710938 12.6875 11.738281 12.691406 11.769531 12.699219 C 11.796875 12.703125 11.828125 12.710938 11.855469 12.714844 C 11.882812 12.71875 11.910156 12.722656 11.9375 12.730469 C 11.980469 12.734375 12.023438 12.742188 12.070312 12.75 C 12.097656 12.753906 12.128906 12.757812 12.160156 12.761719 C 12.1875 12.765625 12.214844 12.765625 12.238281 12.769531 C 12.28125 12.773438 12.324219 12.777344 12.363281 12.78125 C 12.386719 12.785156 12.40625 12.785156 12.425781 12.785156 C 12.476562 12.789062 12.523438 12.792969 12.570312 12.792969 C 12.589844 12.796875 12.605469 12.796875 12.625 12.796875 C 12.683594 12.796875 12.742188 12.800781 12.800781 12.800781 C 12.859375 12.800781 12.917969 12.796875 12.976562 12.796875 C 12.992188 12.796875 13.011719 12.796875 13.027344 12.792969 C 13.078125 12.792969 13.132812 12.789062 13.183594 12.785156 C 13.195312 12.785156 13.207031 12.785156 13.21875 12.785156 C 13.269531 12.78125 13.320312 12.773438 13.371094 12.769531 C 13.390625 12.765625 13.40625 12.765625 13.421875 12.761719 C 13.617188 12.738281 13.8125 12.707031 14 12.660156 Z M 14.257812 11.753906 C 14.25 11.757812 14.246094 11.757812 14.238281 11.761719 C 13.761719 11.917969 13.273438 12 12.789062 12 C 12.773438 12 12.761719 12 12.75 12 C 12.71875 12 12.6875 12 12.65625 11.996094 C 11.925781 11.972656 11.238281 11.773438 10.640625 11.4375 C 11.160156 10.757812 11.960938 10.398438 12.800781 10.398438 C 13.640625 10.398438 14.4375 10.757812 14.960938 11.4375 C 14.738281 11.5625 14.503906 11.667969 14.257812 11.753906 Z M 8.398438 7.601562 C 8.398438 5.160156 10.398438 3.199219 12.800781 3.199219 C 15.238281 3.199219 17.199219 5.160156 17.199219 7.601562 C 17.199219 8.957031 16.59375 10.167969 15.632812 10.972656 C 14.9375 10.105469 13.902344 9.601562 12.800781 9.601562 C 11.707031 9.601562 10.675781 10.097656 9.980469 10.984375 C 9.011719 10.179688 8.398438 8.964844 8.398438 7.601562 Z M 18 20.121094 C 18 20.519531 17.71875 20.800781 17.359375 20.800781 L 8.28125 20.800781 C 7.878906 20.800781 7.601562 20.480469 7.601562 20.121094 L 7.601562 15.839844 C 7.601562 15.199219 8.28125 15.238281 8.28125 15.238281 L 17.359375 15.238281 C 17.71875 15.238281 18 15.519531 18 15.878906 Z M 18 20.121094"/>
    <path d="M10 7.601562C10 7.398438 9.839844 7.199219 9.601562 7.199219 9.359375 7.199219 9.199219 7.359375 9.199219 7.601562 9.199219 7.839844 9.359375 8 9.601562 8 9.839844 8 10 7.839844 10 7.601562zM16 8C16.238281 8 16.398438 7.839844 16.398438 7.601562 16.398438 7.398438 16.238281 7.199219 16 7.199219 15.761719 7.199219 15.601562 7.359375 15.601562 7.601562 15.601562 7.839844 15.761719 8 16 8zM10.398438 6C10.640625 6 10.800781 5.839844 10.800781 5.601562 10.800781 5.398438 10.640625 5.199219 10.398438 5.199219 10.160156 5.199219 10 5.359375 10 5.601562 10 5.839844 10.160156 6 10.398438 6zM12.800781 4.800781C13.039062 4.800781 13.199219 4.640625 13.199219 4.398438 13.199219 4.199219 13.039062 4 12.800781 4 12.558594 4 12.398438 4.160156 12.398438 4.398438 12.398438 4.640625 12.558594 4.800781 12.800781 4.800781zM15.199219 6C15.441406 6 15.601562 5.839844 15.601562 5.601562 15.601562 5.398438 15.441406 5.199219 15.199219 5.199219 14.960938 5.199219 14.800781 5.359375 14.800781 5.601562 14.800781 5.839844 14.960938 6 15.199219 6zM12.480469 8.640625C12.558594 8.761719 12.839844 8.800781 13 8.679688 13.160156 8.558594 13.199219 8.28125 13.039062 8.121094L11.71875 6.519531C11.601562 6.359375 11.320312 6.320312 11.160156 6.480469 11 6.601562 10.960938 6.878906 11.121094 7.039062zM12.480469 8.640625"/>
</svg>

<svg xmlns="http://www.w3.org/2000/svg" width="32" height="32" viewBox="0 0 24 24">
    <path d="M15.762 16H9.879c-.8 0-1.438.68-1.438 1.48v1.079c0 .8.637 1.441 1.438 1.441h5.883c.797 0 1.437-.64 1.476-1.441V17.48c0-.84-.68-1.48-1.476-1.48zm0 3.2H9.879a.631.631 0 0 1-.64-.641v-.16h1.202c.2 0 .36-.16.36-.399 0-.238-.121-.398-.36-.398H9.238v-.122c0-.402.282-.68.64-.68h5.884c.398 0 .68.321.68.68v.122h-1.243c-.238 0-.398.16-.398.398 0 .238.16.398.398.398h1.242v.16c0 .364-.32.641-.68.641zm0 0"/>
    <path d="M23.602 19.2H18.8v-2.4h4.8c.239 0 .399-.16.399-.402 0-.238-.16-.398-.398-.398H18.8v-.121c0-.8-.64-1.438-1.442-1.438h-2.597v-2.02A5.195 5.195 0 0 0 18 7.602a5.19 5.19 0 0 0-5.2-5.203 5.19 5.19 0 0 0-5.198 5.204 5.187 5.187 0 0 0 3.199 4.8v2.04H8.28c-.84 0-1.48.636-1.48 1.437v.176A3.212 3.212 0 0 1 4 12.879V2.8c0-.242-.16-.403-.398-.403-.243 0-.403.16-.403.403v10.078c0 2.082 1.602 3.8 3.602 4v2.32c-3.32-.199-6-2.96-6-6.32V2.8c0-.242-.16-.403-.403-.403-.238 0-.398.16-.398.403v10.078c0 3.789 3.023 6.902 6.8 7.11v.132c0 .84.68 1.48 1.481 1.48h9.078c.801 0 1.442-.64 1.442-1.44V20h4.8c.239 0 .399-.16.399-.398 0-.243-.16-.403-.398-.403zM14 14.397h-2.398V12.66c.023.008.05.012.078.02.03.008.058.011.09.02.027.003.058.01.085.015.028.004.055.008.082.015.043.004.086.012.133.02l.09.012c.027.004.055.004.078.008l.125.011a.357.357 0 0 0 .063.004c.05.004.097.008.144.008.02.004.035.004.055.004.059 0 .117.004.176.004.058 0 .117-.004.176-.004.015 0 .035 0 .05-.004.051 0 .106-.004.157-.008h.035c.05-.004.101-.012.152-.015.02-.004.035-.004.05-.008.196-.024.392-.055.579-.102zm.258-2.644l-.02.008A4.654 4.654 0 0 1 12.79 12h-.039c-.031 0-.063 0-.094-.004a4.394 4.394 0 0 1-2.015-.559c.52-.68 1.32-1.039 2.16-1.039.84 0 1.636.36 2.16 1.04-.223.124-.457.23-.703.316zm-5.86-4.152c0-2.442 2-4.403 4.403-4.403a4.389 4.389 0 0 1 4.398 4.403 4.38 4.38 0 0 1-1.566 3.37 3.626 3.626 0 0 0-2.832-1.37 3.567 3.567 0 0 0-2.82 1.382 4.38 4.38 0 0 1-1.583-3.382zM18 20.122c0 .398-.281.679-.64.679H8.28a.673.673 0 0 1-.68-.68V15.84c0-.64.68-.602.68-.602h9.078c.36 0 .641.282.641.64zm0 0"/>
    <path d="M10 7.602a.4.4 0 0 0-.398-.403c-.243 0-.403.16-.403.403 0 .238.16.398.403.398.238 0 .398-.16.398-.398zm0 0M16 8c.238 0 .398-.16.398-.398A.4.4 0 0 0 16 7.199c-.238 0-.398.16-.398.403 0 .238.16.398.398.398zm0 0M10.398 6c.243 0 .403-.16.403-.398a.401.401 0 0 0-.403-.403c-.238 0-.398.16-.398.403 0 .238.16.398.398.398zm0 0M12.8 4.8c.24 0 .4-.16.4-.402A.4.4 0 0 0 12.8 4c-.241 0-.402.16-.402.398 0 .243.16.403.403.403zm0 0M15.2 6c.241 0 .402-.16.402-.398a.401.401 0 0 0-.403-.403c-.238 0-.398.16-.398.403 0 .238.16.398.398.398zm0 0M12.48 8.64c.079.122.36.16.52.04.16-.121.2-.399.04-.559L11.718 6.52a.384.384 0 0 0-.559-.04c-.16.122-.2.399-.039.56zm0 0"/>
</svg>
